svg/zap.svg

<svg width="24" height="24" fill="none" xmlns="http://www.w3.org/2000/svg"><path d="M12 1h2v8h8v4h-2v-2h-8V5h-2V3h2V1zM8 7V5h2v2H8zM6 9V7h2v2H6zm-2 2V9h2v2H4zm10 8v2h-2v2h-2v-8H2v-4h2v2h8v6h2zm2-2v2h-2v-2h2zm2-2v2h-2v-2h2zm0 0h2v-2h-2v2z" fill="currentColor"/></svg>

<svg width="24" height="24" viewBox="0 0 24 24" fill="none" xmlns="http://www.w3.org/2000/svg">
<path d="M12 9H22V11H12V9Z" fill="currentColor"/>
<path d="M2 13H12V15H2V13Z" fill="currentColor"/>
<path d="M2 11H4V13H2V11Z" fill="currentColor"/>
<path d="M4 9H6V11H4V9Z" fill="currentColor"/>
<path d="M6 7H8V9H6V7Z" fill="currentColor"/>
<path d="M8 5H10V7H8V5Z" fill="currentColor"/>
<path d="M10 3H12V5H10V3Z" fill="currentColor"/>
<path d="M12 1H14V11H12V1Z" fill="currentColor"/>
<path d="M22 13H20V11H22V13Z" fill="currentColor"/>
<path d="M20 15H18V13H20V15Z" fill="currentColor"/>
<path d="M18 17H16V15H18V17Z" fill="currentColor"/>
<path d="M16 19H14V17H16V19Z" fill="currentColor"/>
<path d="M14 21H12V19H14V21Z" fill="currentColor"/>
<path d="M12 23H10V13H12V23Z" fill="currentColor"/>
</svg>
